<?xml version="1.0" encoding="UTF-8"?>
<map version="1.10" tiledversion="1.12.2" orientation="orthogonal" renderorder="right-down" width="30" height="20" tilewidth="16" tileheight="16" infinite="1" nextlayerid="2" nextobjectid="1">
 <tileset firstgid="1" name="Mystic-Woods-Plains" tilewidth="16" tileheight="16" tilecount="72" columns="6">
  <image source="mystic-woods/sprites/tilesets/plains.png" width="96" height="192"/>
 </tileset>
 <layer id="1" name="Tile Layer 1" width="30" height="20">
  <data encoding="csv">
   <chunk x="0" y="0" width="16" height="16">
26,27,27,27,27,27,27,27,27,27,27,27,27,27,27,28,
32,33,33,33,33,33,33,33,33,33,33,33,33,33,33,34,
32,33,33,33,33,33,33,33,33,33,33,33,33,33,33,34,
32,33,34,39,39,39,39,39,39,39,39,39,39,32,33,34,
32,33,34,0,0,0,0,0,0,0,0,0,0,32,33,34,
32,33,34,0,0,0,0,0,0,0,0,0,0,32,33,34,
32,33,34,0,0,0,0,0,0,0,0,0,0,32,33,34,
32,33,34,0,0,0,0,0,0,0,0,0,0,32,33,34,
32,33,34,0,0,0,0,0,0,0,0,0,0,32,33,34,
32,33,34,0,0,0,0,0,0,0,0,0,0,32,33,34,
32,33,34,0,0,0,0,0,0,0,0,0,0,32,33,34,
32,33,34,0,0,0,0,0,0,0,0,0,0,32,33,34,
32,33,33,33,33,33,33,33,33,33,33,33,33,33,33,34,
32,33,33,33,33,33,33,33,33,33,33,33,33,33,33,34,
39,39,39,39,39,39,39,39,39,39,39,39,39,39,39,39,
0,0,0,0,0,0,0,0,0,0,0,0,0,0,0,0
</chunk>
  </data>
 </layer>
</map>
